public/background/faq.svg

<svg xmlns="http://www.w3.org/2000/svg" width="3030" height="2922" fill="none" preserveAspectRatio="none"><path fill="#F5F5F5" d="M0 0h3030v2922H0z"/><path fill="#EBEBEA" d="M-7834-10289c0-1.1.9-2 2-2H3241c1.1 0 2 .9 2 2V1880c0 1.1-.9 2-2 2H-7832c-1.1 0-2-.9-2-2z"/><path fill="#000" fill-opacity=".1" d="M-7832-10290H3241v-2H-7832zm11074 1V1880h2v-12169zm-1 12170H-7832v2H3241zm-11074-1v-12169h-2V1880zm1 1c-.55 0-1-.45-1-1h-2c0 1.66 1.34 3 3 3zm11074-1c0 .55-.45 1-1 1v2c1.66 0 3-1.34 3-3zm-1-12170c.55 0 1 .4 1 1h2c0-1.7-1.34-3-3-3zm-11073-2c-1.66 0-3 1.3-3 3h2c0-.6.45-1 1-1z"/><g clip-path="url(#a)"><path fill="#fff" d="M6-13878.5h3024v18846H6z"/><g clip-path="url(#b)"><path fill="url(#c)" d="M0 0h3024v10896H0z" transform="translate(6 -5928)"/><path fill="url(#d)" d="M0 0h3024v2208H0z" transform="matrix(1 0 0 -1 6 4968)"/></g></g><defs><linearGradient id="c" x1="1512" x2="1512" y1="-1074.21" y2="4413.52" gradientUnits="userSpaceOnUse"><stop stop-color="#0796D3" stop-opacity=".19"/><stop offset="1" stop-color="#FFCDF7" stop-opacity=".1"/></linearGradient><linearGradient id="d" x1="1512" x2="1512" y1="0" y2="1847.72" gradientUnits="userSpaceOnUse"><stop stop-color="#FFCDF7"/><stop offset="1" stop-color="#BAE8FC" stop-opacity="0"/></linearGradient><clipPath id="a"><path fill="#fff" d="M6-13878.5h3024v18846H6z"/></clipPath><clipPath id="b"><path fill="#fff" d="M6-5928h3024V4968H6z"/></clipPath></defs></svg>

<svg width="3030" height="2922" viewBox="0 0 3030 2922" preserveAspectRatio="none" fill="none"
     xmlns="http://www.w3.org/2000/svg">
    <rect width="3030" height="2922" fill="#F5F5F5"/>
    <path d="M-7834 -10289C-7834 -10290.1 -7833.1 -10291 -7832 -10291H3241C3242.1 -10291 3243 -10290.1 3243 -10289V1880C3243 1881.1 3242.1 1882 3241 1882H-7832C-7833.1 1882 -7834 1881.1 -7834 1880V-10289Z"
          fill="#EBEBEA"/>
    <path d="M-7832 -10290H3241V-10292H-7832V-10290ZM3242 -10289V1880H3244V-10289H3242ZM3241 1881H-7832V1883H3241V1881ZM-7833 1880V-10289H-7835V1880H-7833ZM-7832 1881C-7832.55 1881 -7833 1880.55 -7833 1880H-7835C-7835 1881.66 -7833.66 1883 -7832 1883V1881ZM3242 1880C3242 1880.55 3241.55 1881 3241 1881V1883C3242.66 1883 3244 1881.66 3244 1880H3242ZM3241 -10290C3241.55 -10290 3242 -10289.6 3242 -10289H3244C3244 -10290.7 3242.66 -10292 3241 -10292V-10290ZM-7832 -10292C-7833.66 -10292 -7835 -10290.7 -7835 -10289H-7833C-7833 -10289.6 -7832.55 -10290 -7832 -10290V-10292Z"
          fill="black" fill-opacity="0.1"/>
    <g clip-path="url(#clip0_2_2)">
        <rect width="3024" height="18846" transform="translate(6 -13878.5)" fill="white"/>
        <g clip-path="url(#clip1_2_2)">
            <rect width="3024" height="10896" transform="translate(6 -5928)" fill="url(#paint0_linear_2_2)"/>
            <rect width="3024" height="2208" transform="matrix(1 0 0 -1 6 4968)" fill="url(#paint1_linear_2_2)"/>
        </g>
    </g>
    <defs>
        <linearGradient id="paint0_linear_2_2" x1="1512" y1="-1074.21" x2="1512" y2="4413.52"
                        gradientUnits="userSpaceOnUse">
            <stop stop-color="#0796D3" stop-opacity="0.19"/>
            <stop offset="1" stop-color="#FFCDF7" stop-opacity="0.1"/>
        </linearGradient>
        <linearGradient id="paint1_linear_2_2" x1="1512" y1="0" x2="1512" y2="1847.72" gradientUnits="userSpaceOnUse">
            <stop stop-color="#FFCDF7"/>
            <stop offset="1" stop-color="#BAE8FC" stop-opacity="0"/>
        </linearGradient>
        <clipPath id="clip0_2_2">
            <rect width="3024" height="18846" fill="white" transform="translate(6 -13878.5)"/>
        </clipPath>
        <clipPath id="clip1_2_2">
            <rect width="3024" height="10896" fill="white" transform="translate(6 -5928)"/>
        </clipPath>
    </defs>
</svg>
